storage/app/icons/phosphoricons/regular/list-bullets.svg

<svg xmlns="http://www.w3.org/2000/svg" fill="currentColor" viewBox="0 0 256 256"><path d="M80 64a8 8 0 0 1 8-8h128a8 8 0 0 1 0 16H88a8 8 0 0 1-8-8m136 56H88a8 8 0 0 0 0 16h128a8 8 0 0 0 0-16m0 64H88a8 8 0 0 0 0 16h128a8 8 0 0 0 0-16M44 52a12 12 0 1 0 12 12 12 12 0 0 0-12-12m0 64a12 12 0 1 0 12 12 12 12 0 0 0-12-12m0 64a12 12 0 1 0 12 12 12 12 0 0 0-12-12"/></svg>

<svg xmlns="http://www.w3.org/2000/svg" viewBox="0 0 256 256" fill="currentColor"><path d="M80,64a8,8,0,0,1,8-8H216a8,8,0,0,1,0,16H88A8,8,0,0,1,80,64Zm136,56H88a8,8,0,0,0,0,16H216a8,8,0,0,0,0-16Zm0,64H88a8,8,0,0,0,0,16H216a8,8,0,0,0,0-16ZM44,52A12,12,0,1,0,56,64,12,12,0,0,0,44,52Zm0,64a12,12,0,1,0,12,12A12,12,0,0,0,44,116Zm0,64a12,12,0,1,0,12,12A12,12,0,0,0,44,180Z"/></svg>
